assets/icons/care/do_not_bleach.svg

<svg xmlns="http://www.w3.org/2000/svg" viewBox="0 0 453.5 453.5" style="enable-background:new 0 0 453.5 453.5" xml:space="preserve"><path d="M299.7 191.1 411 113l-14.6-20.9L287 168.9 227.4 65.2l-60 104.3L57.1 92.1 42.5 113l112.1 78.7-67.5 117.6-44.6 31.3 14.6 20.9-4.1 7.1h348.7l-4.6-8 13.9-19.9-42.6-29.9-68.7-119.7zm19.4 85-70.2-49.3 29.8-20.9 40.4 70.2zm-212.6 50.7 120.3-84.5 122.3 85.9 8.5 14.8H97.1l9.4-16.2zm69.1-120.4 29 20.3-68.2 47.9 39.2-68.2zm90.4-22.7-39.3 27.6-38.4-27 39-67.9 38.7 67.3z"/></svg>

<?xml version="1.0" encoding="utf-8"?>
<!-- Generator: Adobe Illustrator 23.0.4, SVG Export Plug-In . SVG Version: 6.00 Build 0)  -->
<svg version="1.1" id="Ebene_1" xmlns="http://www.w3.org/2000/svg" xmlns:xlink="http://www.w3.org/1999/xlink" x="0px" y="0px"
	 viewBox="0 0 453.5 453.5" style="enable-background:new 0 0 453.5 453.5;" xml:space="preserve">
<g>
	<path d="M299.7,191.1L411,113l-14.6-20.9L287,168.9L227.4,65.2l-60,104.3L57.1,92.1L42.5,113l112.1,78.7L87.1,309.3l-44.6,31.3
		l14.6,20.9l0,0l-4.1,7.1h348.7l-4.6-8l13.9-19.9l-42.6-29.9L299.7,191.1L299.7,191.1z M319.1,276.1l-70.2-49.3l29.8-20.9
		L319.1,276.1L319.1,276.1z M106.5,326.8l120.3-84.5l122.3,85.9l8.5,14.8H97.1L106.5,326.8L106.5,326.8z M175.6,206.4l29,20.3
		l-68.2,47.9L175.6,206.4L175.6,206.4z M266,183.7l-39.3,27.6l-38.4-27l39-67.9L266,183.7L266,183.7z"/>
</g>
</svg>
